assets/materialui/plain.svg

<svg viewBox="0 0 128 128" xmlns="http://www.w3.org/2000/svg"><g fill="#1fa6ca"><path d="m.2 68.6v-55.2l47.8 27.6v18.4l-31.9-18.4v36.8zm47.8-27.6 47.9-27.6v55.3l-31.9 18.3-16-9.2 32-18.4v-18.4l-32 18.4z"/><path d="m48 77.8v18.4l32 18.4v-18.4zm32 36.8 47.8-27.6v-36.8l-16 9.2v18.4l-31.8 18.4zm31.9-73.6v-18.4l16-9.2v18.4z"/></g></svg>

<svg xmlns="http://www.w3.org/2000/svg" viewBox="0 0 128 128"><g fill="#1fa6ca"><path d="M.2 68.6V13.4L48 41v18.4L16.1 41v36.8zM48 41l47.9-27.6v55.3L64 87l-16-9.2 32-18.4V41L48 59.4z"/><path d="M48 77.8v18.4l32 18.4V96.2zm32 36.8L127.8 87V50.2l-16 9.2v18.4L80 96.2zM111.9 41V22.6l16-9.2v18.4z"/></g></svg>
